src/assets/icons/push-bg.svg

<svg width="292" height="261" viewBox="0 0 292 261" fill="none" xmlns="http://www.w3.org/2000/svg">
<path fill-rule="evenodd" clip-rule="evenodd" d="M274.736 11.5654L294.116 0.214914C295.15 -0.390434 296.45 0.354946 296.45 1.55273V108.213C296.45 108.764 296.158 109.273 295.683 109.551L276.303 120.902C275.269 121.507 273.969 120.762 273.969 119.564V12.9033C273.969 12.3528 274.26 11.8436 274.736 11.5654ZM42.1965 144.06L252.274 24.9435C253.308 24.3574 254.589 25.104 254.589 26.2922V132.613C254.589 133.171 254.289 133.686 253.803 133.962L43.726 253.078C42.6924 253.664 41.4109 252.917 41.4109 251.729V145.408C41.4109 144.85 41.7109 144.335 42.1965 144.06ZM128.756 49.7174L-1.21234 123.157C-1.69903 123.432 -2 123.948 -2 124.507V144.105C-2 145.293 -0.720411 146.04 0.313116 145.456L130.281 72.0158C130.768 71.7409 131.069 71.2251 131.069 70.666V51.0672C131.069 49.8801 129.79 49.1334 128.756 49.7174ZM295.687 132.566L165.719 206.005C165.232 206.28 164.931 206.796 164.931 207.355V226.954C164.931 228.141 166.21 228.888 167.244 228.304L297.212 154.864C297.699 154.589 298 154.074 298 153.514V133.916C298 132.729 296.72 131.981 295.687 132.566ZM-1.22762 168.766L19.7026 156.623C20.7362 156.023 22.031 156.769 22.031 157.964V264.633C22.031 265.186 21.7367 265.697 21.2586 265.974L0.328395 278.117C-0.705178 278.717 -2 277.971 -2 276.776V170.107C-2 169.554 -1.70573 169.043 -1.22762 168.766Z" fill="url(#paint0_linear_1519_42339)"/>
<defs>
<linearGradient id="paint0_linear_1519_42339" x1="148" y1="-0.370458" x2="148" y2="279.47" gradientUnits="userSpaceOnUse">
<stop stop-color="#E61C44"/>
<stop offset="1" stop-color="#E61C44" stop-opacity="0"/>
</linearGradient>
</defs>
</svg>

<svg width="292" height="261" fill="none" xmlns="http://www.w3.org/2000/svg"><path fill-rule="evenodd" clip-rule="evenodd" d="m274.736 11.565 19.38-11.35a1.55 1.55 0 0 1 2.334 1.338v106.66a1.55 1.55 0 0 1-.767 1.338l-19.38 11.351a1.55 1.55 0 0 1-2.334-1.338V12.904c0-.551.291-1.06.767-1.339M42.196 144.06 252.275 24.944a1.55 1.55 0 0 1 2.315 1.348v106.321c0 .558-.3 1.073-.786 1.349L43.726 253.078a1.55 1.55 0 0 1-2.315-1.349V145.408c0-.558.3-1.073.785-1.348m86.56-94.343-129.968 73.44a1.55 1.55 0 0 0-.788 1.35v19.598a1.55 1.55 0 0 0 2.313 1.351l129.968-73.44a1.55 1.55 0 0 0 .788-1.35V51.067a1.55 1.55 0 0 0-2.313-1.35m166.931 82.849-129.968 73.439a1.55 1.55 0 0 0-.788 1.35v19.599a1.55 1.55 0 0 0 2.313 1.35l129.968-73.44a1.55 1.55 0 0 0 .788-1.35v-19.598c0-1.187-1.28-1.935-2.313-1.35m-296.915 36.2 20.93-12.143a1.55 1.55 0 0 1 2.329 1.341v106.669a1.55 1.55 0 0 1-.772 1.341L.329 278.117A1.55 1.55 0 0 1-2 276.776V170.107c0-.553.294-1.064.772-1.341" fill="url(#prefix__a)"/><defs><linearGradient id="prefix__a" x1="148" y1="-.37" x2="148" y2="279.47" gradientUnits="userSpaceOnUse"><stop stop-color="#E61C44"/><stop offset="1" stop-color="#E61C44" stop-opacity="0"/></linearGradient></defs></svg>
